Icons/rename_me_email.svg

<svg viewBox="0 0 48 48" xmlns:xlink="http://www.w3.org/1999/xlink">
 <defs>
  <linearGradient id="0">
   <stop stop-opacity="0"/>
   <stop offset="1"/>
  </linearGradient>
  <linearGradient xlink:href="#0" id="1" gradientUnits="userSpaceOnUse" gradientTransform="translate(4e-7,-48)" y1="47" x2="0" y2="1"/>
  <clipPath id="2">
   <g transform="translate(0,-1004.3622)">
    <rect rx="4" y="1005.36" x="1" height="46" width="46" fill="#1890d0"/>
   </g>
  </clipPath>
  <clipPath id="3">
   <g transform="translate(0,-1004.3622)">
    <rect rx="4" y="1005.36" x="1" height="46" width="46" fill="#1890d0"/>
   </g>
  </clipPath>
 </defs>
 <g>
  <g transform="translate(0,-1004.3622)">
   <path d="m 5,1006.3622 c -2.216,0 -4,1.784 -4,4 l 0,37.25 c 0,2.216 1.784,4 4,4 l 38,0 c 2.216,0 4,-1.784 4,-4 l 0,-37.25 c 0,-2.216 -1.784,-4 -4,-4 l -38,0 z m -4,41.5 0,0.5 c 0,2.216 1.784,4 4,4 l 38,0 c 2.216,0 4,-1.784 4,-4 l 0,-0.5 c 0,2.216 -1.784,4 -4,4 l -38,0 c -2.216,0 -4,-1.784 -4,-4 z" opacity="0.02"/>
   <path d="m 1,1047.6122 0,0.25 c 0,2.216 1.784,4 4,4 l 38,0 c 2.216,0 4,-1.784 4,-4 l 0,-0.25 c 0,2.216 -1.784,4 -4,4 l -38,0 c -2.216,0 -4,-1.784 -4,-4 z" opacity="0.05"/>
   <rect width="46" height="46" x="1" y="1005.61" rx="4" opacity="0.1"/>
  </g>
 </g>
 <g>
  <g transform="translate(0,-1004.3622)">
   <rect rx="4" y="1005.36" x="1" height="46" width="46" fill="#5585bf"/>
  </g>
 </g>
 <g>
  <rect transform="scale(1,-1)" width="46" height="46" x="1" y="-46.998" rx="4" opacity="0.1" fill="url(#1)"/>
 </g>
 <g>
  <g clip-path="url(#2)">
   <g opacity="0.1">
    <g>
     <path d="M 13.777344 35 L 34.222656 35 C 36 35 36 35 36 33.285156 L 36 18.714844 L 24 11 L 12 18.714844 L 12 33.285156 C 12 35 12 35 13.777344 35 Z M 13.777344 35 "/>
     <path d="M 14 13 L 14 33 L 34 33 L 34 13 Z M 14 13 "/>
     <path d="M 13.777344 35 L 34.222656 35 C 36 35 36 35 36 33.316406 L 36 19 L 12 33.316406 C 12 35 12 35 13.777344 35 Z M 13.777344 35 "/>
     <path d="M 34.222656 35 L 13.777344 35 C 12 35 12 35 12 33.316406 L 12 19 L 36 33.316406 C 36 35 36 35 34.222656 35 Z M 34.222656 35 "/>
    </g>
   </g>
  </g>
 </g>
 <g>
  <g clip-path="url(#3)">
   <g transform="translate(0,-1)">
    <g>
     <path d="M 13.777344 35 L 34.222656 35 C 36 35 36 35 36 33.285156 L 36 18.714844 L 24 11 L 12 18.714844 L 12 33.285156 C 12 35 12 35 13.777344 35 Z M 13.777344 35 " fill="#ab9c2c"/>
     <path d="M 14 13 L 14 33 L 34 33 L 34 13 Z M 14 13 " fill="#f9f9f9"/>
     <path d="M 13.777344 35 L 34.222656 35 C 36 35 36 35 36 33.316406 L 36 19 L 12 33.316406 C 12 35 12 35 13.777344 35 Z M 13.777344 35 " fill="#c8b93e"/>
     <path d="M 34.222656 35 L 13.777344 35 C 12 35 12 35 12 33.316406 L 12 19 L 36 33.316406 C 36 35 36 35 34.222656 35 Z M 34.222656 35 " fill="#f2e253"/>
    </g>
   </g>
  </g>
 </g>
 <g>
  <g transform="translate(0,-1004.3622)">
   <path d="m 1,1043.3622 0,4 c 0,2.216 1.784,4 4,4 l 38,0 c 2.216,0 4,-1.784 4,-4 l 0,-4 c 0,2.216 -1.784,4 -4,4 l -38,0 c -2.216,0 -4,-1.784 -4,-4 z" opacity="0.1"/>
  </g>
 </g>
</svg>

<svg viewBox="0 0 48 48"><defs><linearGradient id="linearGradient3764" x1="1" x2="47" gradientUnits="userSpaceOnUse" gradientTransform="translate(-48.000001,0.00221467)"><stop stop-color="#467aba" stop-opacity="1"/><stop offset="1" stop-color="#5585bf" stop-opacity="1"/></linearGradient><clipPath id="clipPath-159901669"><g transform="translate(0,-1004.3622)"><rect rx="4" y="1005.36" x="1" height="46" width="46" fill="#1890d0"/></g></clipPath><clipPath id="clipPath-172569386"><g transform="translate(0,-1004.3622)"><rect rx="4" y="1005.36" x="1" height="46" width="46" fill="#1890d0"/></g></clipPath></defs><g><path d="m 1 43 l 0 0.25 c 0 2.216 1.784 4 4 4 l 38 0 c 2.216 0 4 -1.784 4 -4 l 0 -0.25 c 0 2.216 -1.784 4 -4 4 l -38 0 c -2.216 0 -4 -1.784 -4 -4 z m 0 0.5 l 0 0.5 c 0 2.216 1.784 4 4 4 l 38 0 c 2.216 0 4 -1.784 4 -4 l 0 -0.5 c 0 2.216 -1.784 4 -4 4 l -38 0 c -2.216 0 -4 -1.784 -4 -4 z" opacity="0.02"/><path d="m 1 43.25 l 0 0.25 c 0 2.216 1.784 4 4 4 l 38 0 c 2.216 0 4 -1.784 4 -4 l 0 -0.25 c 0 2.216 -1.784 4 -4 4 l -38 0 c -2.216 0 -4 -1.784 -4 -4 z" opacity="0.05"/><path d="m 1 43 l 0 0.25 c 0 2.216 1.784 4 4 4 l 38 0 c 2.216 0 4 -1.784 4 -4 l 0 -0.25 c 0 2.216 -1.784 4 -4 4 l -38 0 c -2.216 0 -4 -1.784 -4 -4 z" opacity="0.1"/></g><g><rect width="46" height="46" x="-47" y="1" rx="4" transform="matrix(0,-1,1,0,0,0)" fill="url(#linearGradient3764)" fill-opacity="1"/></g><g><g clip-path="url(#clipPath-159901669)"><g opacity="0.1"><!-- color: #5585bf --><g><path d="m 13.777 35 l 20.445 0 c 1.777 0 1.777 0 1.777 -1.715 l 0 -14.57 l -12 -7.715 l -12 7.715 l 0 14.57 c 0 1.715 0 1.715 1.777 1.715 m 0 0" fill="#000"/><path d="m 14 13 l 0 20 l 20 0 l 0 -20 m -20 0" fill="#000"/><path d="m 13.777 35 l 20.445 0 c 1.777 0 1.777 0 1.777 -1.684 l 0 -14.316 l -24 14.316 c 0 1.684 0 1.684 1.777 1.684 m 0 0" fill="#000"/><path d="m 34.22 35 l -20.445 0 c -1.777 0 -1.777 0 -1.777 -1.684 l 0 -14.316 l 24 14.316 c 0 1.684 0 1.684 -1.777 1.684 m 0 0" fill="#000"/></g></g></g></g><g><g clip-path="url(#clipPath-172569386)"><g transform="translate(0,-1)"><!-- color: #5585bf --><g><path d="m 13.777 35 l 20.445 0 c 1.777 0 1.777 0 1.777 -1.715 l 0 -14.57 l -12 -7.715 l -12 7.715 l 0 14.57 c 0 1.715 0 1.715 1.777 1.715 m 0 0" fill="#ab9c2c"/><path d="m 14 13 l 0 20 l 20 0 l 0 -20 m -20 0" fill="#f9f9f9"/><path d="m 13.777 35 l 20.445 0 c 1.777 0 1.777 0 1.777 -1.684 l 0 -14.316 l -24 14.316 c 0 1.684 0 1.684 1.777 1.684 m 0 0" fill="#c8b93e"/><path d="m 34.22 35 l -20.445 0 c -1.777 0 -1.777 0 -1.777 -1.684 l 0 -14.316 l 24 14.316 c 0 1.684 0 1.684 -1.777 1.684 m 0 0" fill="#f2e253"/></g></g></g></g><g><g transform="translate(0,-1004.3622)"><path d="m 1 1043.36 0 4 c 0 2.216 1.784 4 4 4 l 38 0 c 2.216 0 4 -1.784 4 -4 l 0 -4 c 0 2.216 -1.784 4 -4 4 l -38 0 c -2.216 0 -4 -1.784 -4 -4 z" opacity="0.1"/></g></g></svg>
